X:693
T:
C:Klint
N:Brudmarsch,
S:av skolläraren Klint, Östergarn.
O:Gotland, Östergarn
R:marsch
M:C
L:1/8
K:C
G>G|c2 G>G E2 G2|c2 d>d e2 G>G|f2 G>G e2 c>e|d>c BA G2 G>G|
c2 G>G E2 G2|c2 d>d e2 c>e|d2 d>d d2 e>^f|g2 [gBDG,]>[gBDG,] [gBG,]2:|
|:G>G|Lf2 Le2 Ld2 G>G|Le2 Ld2 Lc2 cc|LB2 Lc2 Ld2 Le2|e2 d>d G>F E>D|
C>c cc c2 de|f3 e dc BA|G2 G>G G2 AB|1 c2 c>c c2:|2 c2 c>c c2 z2
K:F
|:c3 B A2 c2|d2 f2 e2 d2|c3 B AF c>A|G2 A2 G2 z2|c3 B A2 c2|d2 f2 e2 d2|
c2 c>c c>c de|f2 [fAF]>[fAF] f2 z2::A2 A>A ^cA ^cA|d2 e>g f2 d2|c2 c>c c2 GB|
A2 cA G2 z2|c3 B A2 f2|f3 f e2 d2|c2 c>c c2 d>e|[fAF]2 [fAF]>[fAF] [fAF]2 z2:|

